X:101
T:The Yellow Tinker
M:C|
S:Amix
R:Reel
K:Amix
EA~A2 EG~G2 | EA~A2 eAdA | EAAG EDEF | G2BG DGBG :|
A2eA fAeA | ~A2eA dBGB | A2eA fAeA | d2BG DGBG |
A2eA fAeA | fAeA dBGB | edef gfge | d2BG DGBG ||
